dist/assets/media/img/advantages-22.svg

<svg width="41" height="40" viewBox="0 0 41 40" fill="none" xmlns="http://www.w3.org/2000/svg">
<path fill-rule="evenodd" clip-rule="evenodd" d="M19.2877 24.208L32.6738 1.00294L30.9021 16.0468C30.7259 17.5436 32.2057 18.6902 33.6111 18.1456L38.9996 16.0575L25.7664 38.9975L27.5659 24.5034C27.7465 23.0492 26.3534 21.901 24.9604 22.3558L19.2877 24.208ZM33.6669 1.11989C33.794 0.0405139 32.3506 -0.438172 31.8076 0.503254L18.4215 23.7083C17.9633 24.5025 18.7264 25.4432 19.5981 25.1586L25.2708 23.3064C25.9673 23.079 26.6638 23.6531 26.5735 24.3802L24.774 38.8743C24.6397 39.9563 26.0878 40.4417 26.6326 39.4972L39.8658 16.5572C40.3374 15.7397 39.5183 14.7841 38.6383 15.1251L33.2497 17.2131C32.5471 17.4854 31.8072 16.9122 31.8953 16.1637L33.6669 1.11989ZM5.53693 18.0434C5.25954 18.0434 5.03467 18.2683 5.03467 18.5457C5.03467 18.8231 5.25954 19.0479 5.53693 19.0479H17.6222C17.8996 19.0479 18.1245 18.8231 18.1245 18.5457C18.1245 18.2683 17.8996 18.0434 17.6222 18.0434H5.53693ZM8.05518 28.585C8.05518 28.3076 8.28005 28.0827 8.55744 28.0827H20.6427C20.9201 28.0827 21.145 28.3076 21.145 28.585C21.145 28.8623 20.9201 29.0872 20.6427 29.0872H8.55744C8.28005 29.0872 8.05518 28.8623 8.05518 28.585ZM0.502262 23.063C0.22487 23.063 0 23.2879 0 23.5653C0 23.8427 0.224871 24.0676 0.502263 24.0676H12.5875C12.8649 24.0676 13.0898 23.8427 13.0898 23.5653C13.0898 23.2879 12.8649 23.063 12.5875 23.063H0.502262Z" fill="#46403C"/>
</svg>

<svg width="41" height="40" fill="none" xmlns="http://www.w3.org/2000/svg"><path fill-rule="evenodd" clip-rule="evenodd" d="M19.288 24.208L32.674 1.003l-1.772 15.044c-.176 1.497 1.304 2.643 2.71 2.099L39 16.058l-13.234 22.94 1.8-14.495a2 2 0 00-2.606-2.147l-5.672 1.852zM33.667 1.12c.127-1.08-1.316-1.558-1.86-.617L18.423 23.708c-.459.795.304 1.735 1.176 1.45l5.673-1.852a1 1 0 011.302 1.074l-1.799 14.494c-.134 1.082 1.314 1.568 1.859.623l13.233-22.94c.471-.817-.348-1.773-1.228-1.432l-5.388 2.088a1 1 0 01-1.355-1.05L33.667 1.12zM5.537 18.043a.502.502 0 000 1.005h12.085a.502.502 0 100-1.005H5.537zm2.518 10.542c0-.277.225-.502.502-.502h12.086a.502.502 0 010 1.004H8.557a.502.502 0 01-.502-.502zM.502 23.063a.502.502 0 000 1.005h12.086a.502.502 0 000-1.005H.502z" fill="#46403C"/></svg>
